assets/icons/camera/video.svg

<?xml version="1.0" encoding="UTF-8" standalone="no"?>
<svg viewBox="0 0 24 24" height="24" width="24" version="1.1" id="svg8" sodipodi:docname="video.svg" inkscape:version="1.1 (ce6663b3b7, 2021-05-25)"
   xmlns:inkscape="http://www.inkscape.org/namespaces/inkscape"
   xmlns:sodipodi="http://sodipodi.sourceforge.net/DTD/sodipodi-0.dtd"
   xmlns="http://www.w3.org/2000/svg"
   xmlns:svg="http://www.w3.org/2000/svg">
   <defs id="defs12" />
   <sodipodi:namedview id="namedview10" pagecolor="#ffffff" bordercolor="#666666" borderopacity="1.0" inkscape:pageshadow="2" inkscape:pageopacity="0.0" inkscape:pagecheckerboard="0" showgrid="true" inkscape:zoom="28" inkscape:cx="14.160714" inkscape:cy="12.160714" inkscape:window-width="1920" inkscape:window-height="1016" inkscape:window-x="0" inkscape:window-y="27" inkscape:window-maximized="1" inkscape:current-layer="svg8" inkscape:snap-page="true">
      <inkscape:grid type="xygrid" id="grid821" />
      <inkscape:grid type="xygrid" id="grid823" dotted="true" spacingx="0.5" spacingy="0.5" empspacing="10" />
   </sodipodi:namedview>
   <path id="path858" style="color:#000000;fill:#808080;-inkscape-stroke:none;fill-opacity:1" d="M 5.4550781 6 C 4.4864972 6.0089807 3.7372591 6.0732694 3.1171875 6.4453125 C 2.7038064 6.6933412 2.3972496 7.10122 2.2285156 7.6074219 C 2.0597817 8.1136238 2 8.722223 2 9.5 L 2 14.5 C 2 15.277777 2.059782 15.886376 2.2285156 16.392578 C 2.3972496 16.89878 2.7038064 17.306659 3.1171875 17.554688 C 3.9439497 18.050746 5.0000015 18 6.5 18 L 12.5 18 C 13.999999 18 15.056049 18.05074 15.882812 17.554688 C 16.296194 17.306659 16.60275 16.89878 16.771484 16.392578 C 16.940218 15.886376 17 15.277777 17 14.5 L 17 13.273438 L 22 16 L 22 8 L 17 10.726562 L 17 9.5 C 17 8.722223 16.94022 8.1136238 16.771484 7.6074219 C 16.60275 7.10122 16.296194 6.6933412 15.882812 6.4453125 C 15.05605 5.9492552 13.999998 6 12.5 6 L 6.5 6 C 6.1250004 6 5.7779384 5.9970064 5.4550781 6 z M 6.5 7 L 12.5 7 C 13.999999 7 14.943951 7.050746 15.367188 7.3046875 C 15.578805 7.4316585 15.70975 7.5862809 15.822266 7.9238281 C 15.934781 8.2613754 16 8.7777785 16 9.5 L 16 14.5 C 16 15.222222 15.93478 15.738625 15.822266 16.076172 C 15.70975 16.413719 15.578806 16.568342 15.367188 16.695312 C 14.94395 16.949254 13.999999 17 12.5 17 L 6.5 17 C 5.0000015 17 4.056049 16.94925 3.6328125 16.695312 C 3.4211942 16.568342 3.2902501 16.413719 3.1777344 16.076172 C 3.0652186 15.738625 3 15.222222 3 14.5 L 3 9.5 C 3 8.7777785 3.065219 8.2613754 3.1777344 7.9238281 C 3.2902501 7.5862809 3.4211942 7.4316585 3.6328125 7.3046875 C 4.056049 7.0507456 5.0000015 7 6.5 7 z " />
</svg>

<svg height="24" width="24" xmlns="http://www.w3.org/2000/svg"><path style="color:#000;fill:gray;-inkscape-stroke:none;fill-opacity:1" d="M5.455 6c-.969.009-1.718.073-2.338.445-.413.248-.72.656-.888 1.162C2.059 8.114 2 8.722 2 9.5v5c0 .778.06 1.386.229 1.893.168.506.475.914.888 1.162C3.944 18.05 5 18 6.5 18h6c1.5 0 2.556.05 3.383-.445.413-.248.72-.656.888-1.162.17-.507.229-1.115.229-1.893v-1.227L22 16V8l-5 2.727V9.5c0-.778-.06-1.386-.229-1.893-.168-.506-.475-.914-.888-1.162C15.056 5.95 14 6 12.5 6h-6c-.375 0-.722-.003-1.045 0zM6.5 7h6c1.5 0 2.444.05 2.867.305.212.127.343.281.455.619.113.337.178.854.178 1.576v5c0 .722-.065 1.239-.178 1.576-.112.338-.243.492-.455.62C14.944 16.948 14 17 12.5 17h-6c-1.5 0-2.444-.05-2.867-.305-.212-.127-.343-.281-.455-.619C3.065 15.74 3 15.222 3 14.5v-5c0-.722.065-1.239.178-1.576.112-.338.243-.492.455-.62C4.056 7.052 5 7 6.5 7z"/></svg>
